X: 434
T: The kid on the mountain
C:anon.
O:Ireland
B:Francis O'Neill: "The Dance Music of Ireland" (1907) no. 434
R:Hop, slip jig
Z:Transcribed by Frank Nordberg - http://www.musicaviva.com
F:http://www.musicaviva.com/abc/tunes/ireland/oneill-1001/oneill-1001-043
4.abc
M:9/8
L:1/8
K:Em
EFE FED G2F|EFE cBA BGE|EFE FED G2(G/A/)|BAG FAG FED::BGB AFA G2D|GAB dfe
 dBA|
BGB AFA G2A|BAG FAG FED::gfe efe e2(e/f/)|gfg efg afd|gfe efe e2(g/a/)|ba
g fag fed:|
|:eBB e2f g2f|eBB efg afd|eBB e2f g2(g/a/)|bag fag fed::eBe dBA G2A|Bee d
BA BGE|
eBe dBA G2A|BAG FAG FED::B,EE eBG E2E|B,EE EFG AFD|B,EE eBG E2(G/A/)|BAG
FAG FED:|
W:
W:
W:  From Musica Viva - http://www.musicaviva.com
W:  the Internet center for free sheet music downloads.


